svgs/digilocker.svg

<svg xmlns="http://www.w3.org/2000/svg" viewBox="0 0 192 192"><path d="M38.765 125.31v42.036c0 2.162.862 4.237 2.395 5.766a8.19 8.19 0 0 0 5.781 2.388h110.383c2.167 0 4.248-.86 5.781-2.388a8.146 8.146 0 0 0 2.395-5.766v-106h-36.794a8.2 8.2 0 0 1-4.088-1.092 8.161 8.161 0 0 1-4.089-7.062V16.5H46.941a8.19 8.19 0 0 0-5.781 2.388 8.146 8.146 0 0 0-2.395 5.766v57.627M120.529 16.5 165.5 61.346" fill="none" stroke="#000" stroke-width="12" stroke-linecap="round" stroke-linejoin="round"/><path d="M107.843 87.541c-.174 0-.341.022-.513.026a29.407 29.407 0 0 0-8.329-15.943 29.55 29.55 0 0 0-16.075-8.136 29.584 29.584 0 0 0-17.821 2.706 29.472 29.472 0 0 0-12.917 12.539c-.178-.004-.35-.027-.529-.027a25.203 25.203 0 0 0-17.787 7.35 25.067 25.067 0 0 0-7.367 17.739 25.067 25.067 0 0 0 7.367 17.74 25.203 25.203 0 0 0 17.787 7.35h56.184a20.77 20.77 0 0 0 12.218-3.925 20.679 20.679 0 0 0 7.558-10.347 20.617 20.617 0 0 0 0-12.8 20.679 20.679 0 0 0-7.558-10.347 20.77 20.77 0 0 0-12.218-3.925Z" fill="none" stroke="#000" stroke-width="12" stroke-linecap="round" stroke-linejoin="round"/></svg>

<svg
    xmlns="http://www.w3.org/2000/svg"
    viewBox="0 0 192 192"
    id="vector">
    <path
        id="path"
        d="M 38.765 125.31 L 38.765 167.346 C 38.765 169.508 39.627 171.583 41.16 173.112 C 42.692 174.64 44.773 175.5 46.941 175.5 L 157.324 175.5 C 159.491 175.5 161.572 174.64 163.105 173.112 C 164.638 171.583 165.5 169.508 165.5 167.346 L 165.5 61.346 L 128.706 61.346 C 127.271 61.346 125.861 60.969 124.618 60.254 C 123.375 59.538 122.342 58.509 121.625 57.269 C 120.907 56.03 120.529 54.624 120.529 53.192 L 120.529 16.5 L 46.941 16.5 C 44.773 16.5 42.692 17.36 41.16 18.888 C 39.627 20.417 38.765 22.492 38.765 24.654 L 38.765 82.281 M 120.529 16.5 L 165.5 61.346"
        fill="none"
        stroke="#000000"
        stroke-width="12"
        stroke-linecap="round"
        stroke-linejoin="round"/>
    <path
        id="path_1"
        d="M 107.843 87.541 C 107.669 87.541 107.502 87.563 107.33 87.567 C 106.289 81.517 103.376 75.941 99.001 71.624 C 94.625 67.307 89.003 64.462 82.926 63.488 C 76.849 62.514 70.616 63.461 65.105 66.194 C 59.594 68.927 55.076 73.313 52.188 78.733 C 52.01 78.729 51.838 78.706 51.659 78.706 C 44.99 78.707 38.587 81.353 33.872 86.056 C 29.157 90.76 26.505 97.145 26.505 103.795 C 26.505 110.446 29.157 116.831 33.872 121.535 C 38.587 126.238 44.99 128.884 51.659 128.885 L 107.843 128.885 C 112.229 128.899 116.508 127.524 120.061 124.96 C 123.614 122.396 126.261 118.772 127.619 114.613 C 128.977 110.455 128.977 105.971 127.619 101.813 C 126.261 97.654 123.614 94.03 120.061 91.466 C 116.508 88.902 112.229 87.527 107.843 87.541 Z"
        fill="none"
        stroke="#000000"
        stroke-width="12"
        stroke-linecap="round"
        stroke-linejoin="round"/>
</svg>
